!!!COM:	Bach, Johann Sebastian
!!!CDT:	1685/02/21/-1750/07/28/
!!!OTL@@DE:	Meinen Jesum la&szlig; ich nicht, weil
!!!SCT:	BWV 70 & 70a/11
!!!PC#:	348
!!!AGN:	chorale
**kern	**kern	**kern	**kern
*ICvox	*ICvox	*ICvox	*ICvox
*Ibass	*Itenor	*Ialto	*Isoprn
*I"Bass	*I"Tenor	*I"Alto	*I"Soprano
*	*oclefC4	*oclefC3	*oclefC1
*clefF4	*clefGv2	*clefG2	*clefG2
*k[]	*k[]	*k[]	*k[]
*C:	*C:	*C:	*C:
*M4/4	*M4/4	*M4/4	*M4/4
*met(c)	*met(c)	*met(c)	*met(c)
*MM100	*MM100	*MM100	*MM100
=1-	=1-	=1-	=1-
8cL	4c	4e	4g
8B-J	.	.	.
8AL	4c	4e	4g
8GJ	.	.	.
8FL	4c	4f	4a
8EJ	.	.	.
4D	4d	4f	4a
=2	=2	=2	=2
4G	4d	8fL	4bnX
.	.	8eJ	.
4GG	4G	4d	4b
2C;	2G;	2e;	2cc;
=3	=3	=3	=3
8BBL	4d	4g	4dd
8CJ	.	.	.
8DL	4B	4g	4dd
8EJ	.	.	.
8AAL	4A	4g	4cc
8BBJ	.	.	.
8CL	4A	4f#	4cc
8DJ	.	.	.
=4	=4	=4	=4
4GG	8GL	4d	4b
.	8F#J	.	.
4C	8EL	8cL	8aL
.	[8cJ	16dL	16bL
.	.	16eJJ	16ccJJ
2D	8cL]	2f#	2a
.	8BJ	.	.
.	4A	.	.
=5	=5	=5	=5
2GG;	2B;	2d;	2g;
8CL	4c	8eL	4g
8DJ	.	8dJ	.
8EL	4G	4c	4g
8CJ	.	.	.
=6	=6	=6	=6
8FL	4F	4c	4a
8EJ	.	.	.
8DL	4F	4d	4a
8CJ	.	.	.
8BBL	4G	8dL	4g
8CJ	.	8eJ	.
8AAL	8cL	8fL	4f
8BBJ	8GJ	8dJ	.
=7	=7	=7	=7
2C;	2G;	2c;	2e;
8EL	4G	4B	4g
8DJ	.	.	.
8C#L	4A	4e	4g
8AAJ	.	.	.
=8	=8	=8	=8
8DL	4A	4d	4f
8CJ	.	.	.
8BBL	4G	4d	4f
8GGJ	.	.	.
4CnX	4.G	8cL	4e
.	.	8B-J	.
4FF	.	4A	8dL
.	[8F	.	16eL
.	.	.	16fJJ
=9	=9	=9	=9
2GG	8FL]	2BnX	2d
.	8EJ	.	.
.	8DL	.	.
.	16EL	.	.
.	16FJJ	.	.
2C;	2E;	2G;	2c;
=10	=10	=10	=10
8CL	4.G	8eL	4cc
8BBJ	.	8dJ	.
4AA	.	4c	4cc
.	8F#	.	.
8GGL	4d	[2g	4b
8AA	.	.	.
8BB	4d	.	4b
8CJ	.	.	.
=11	=11	=11	=11
4D	4d	8gL]	4a
.	.	16aL	.
.	.	16gJJ	.
4D#	8cL	16f#LL	4a
.	.	16eJ	.
.	8AJ	8f#J	.
2E;	2e;	2B;	2g;
=12	=12	=12	=12
8AAL	4c#	4e	4g
8BB	.	.	.
8C#X	4A	4e	4g
8AAJ	.	.	.
4DnX	[2A	4d	4fnX
8AAL	.	8cnXL	4e
8GGJ	.	8BJ	.
=13	=13	=13	=13
4FF	8AL]	8AL	4d
.	8D	16BL	.
.	.	16cJJ	.
4GG	8G	4B	4d
.	8FJ	.	.
2C;	2E;	2G;	2c;
==	==	==	==
*-	*-	*-	*-
!!!YOR1: 371 vierstimmige Choralges&auml;nge von Johann Sebastian Bach, 
!!!YOR2: 4th ed. by Alfred D&ouml;rffel (Leipzig: Breitkopf und H&auml;rtel, 
!!!YOR2: c.1875). 178 pp. Plate "V.A.10".  reprint: J.S. Bach, 371 Four-Part 
!!!YOR4: Chorales (New York: Associated Music Publishers, Inc., c.1940).
!!!SMS: B&H, 4th ed, Alfred D&ouml;rffel, c.1875, plate V.A.10
!!!EED:  Craig Stuart Sapp
!!!EEV:  2009/05/22
